X:4368
T:Morgane (M. Heintzen)
O:england
M:3/4
L:1/4
K:G
deg|feg|fed/e/|B3|\
ede|ABc|cBA|1 B2G:|2 G3||
L:1/8
Bd BA GA|Bd BA GA|Bd BA GA|c6|\
ce cB AB|ce cB AB|ce cB AB|d6|
Bd BA GA|Bd BA GA|Bd BA GA|c6|\
AB cd e=f|e2d2c2|B2A2B2|G6||


